svg/sphinx-relay.svg

<svg xmlns="http://www.w3.org/2000/svg" width="256" height="256" fill="none" viewBox="0 0 256 256"><path fill="#618AFF" d="M256 0H0V256H256V0Z"/><path fill="#fff" d="M186.81 62.5799C178.215 54.7386 168.23 48.5728 157.37 44.3999C148.076 40.7296 138.192 38.7811 128.2 38.6499H128.14C118.158 38.788 108.284 40.7397 99 44.4099C88.1228 48.5742 78.1207 54.7369 69.51 62.5799C54.91 75.8799 37.51 100.43 37.51 141.82C37.519 142.835 37.7932 143.831 38.3054 144.708C38.8176 145.585 39.5499 146.313 40.43 146.82C40.61 146.92 58.01 157.18 61.31 177.19C63.58 190.95 72.9 201.51 88.31 207.75C95.2519 210.521 102.563 212.256 110.01 212.9C110.804 212.949 111.601 212.835 112.349 212.565C113.098 212.294 113.784 211.874 114.364 211.328C114.943 210.783 115.406 210.125 115.721 209.394C116.037 208.664 116.2 207.876 116.2 207.08V165.75C120.019 166.873 123.98 167.435 127.96 167.42C132.12 167.438 136.259 166.834 140.24 165.63V207.13C140.229 208.671 140.829 210.154 141.909 211.254C142.988 212.354 144.459 212.981 146 213H146.36C153.807 212.356 161.118 210.621 168.06 207.85C183.42 201.62 192.74 191.05 195.06 177.29C196.55 168.801 200.56 160.957 206.57 154.78C209.346 151.771 212.499 149.132 215.95 146.93C216.83 146.423 217.562 145.695 218.075 144.818C218.587 143.941 218.861 142.945 218.87 141.93C218.81 100.43 201.41 75.8899 186.81 62.5799ZM128.13 50.3199H128.19C140.07 50.3199 157.35 54.5999 172.87 66.1899L162.63 85.7699H93.42L83.42 66.2199C98.92 54.5999 116.24 50.3199 128.13 50.3199ZM72.81 175.32C69.5 155.32 55.43 143.17 49.21 138.7C50 106.29 62.59 85.9999 74.33 74.1199L84 92.9999L84.05 117.59C84.0464 126.529 86.1753 135.339 90.26 143.29C93.6021 149.913 98.4773 155.641 104.48 160V200.41C94.5 198.53 75.67 192.66 72.81 175.34V175.32ZM100.61 137.86C97.3846 131.562 95.7082 124.586 95.72 117.51V97.4099H160.3L160.12 116.63C160.064 123.918 158.355 131.099 155.12 137.63C150.99 145.88 142.91 155.71 127.87 155.71C112.24 155.75 104.08 144.56 100.61 137.88V137.86ZM183.5 175.32C181.91 184.92 175.33 192.17 163.93 196.86C160.024 198.44 155.971 199.629 151.83 200.41V159.74C157.672 155.29 162.377 149.519 165.56 142.9C169.585 134.767 171.709 125.825 171.77 116.75L172 92.9999L181.91 73.9999C193.68 85.8899 206.35 106.18 207.11 138.67C200.89 143.18 186.82 155.29 183.51 175.34L183.5 175.32Z"/></svg>

<svg xmlns="http://www.w3.org/2000/svg" width="256" height="256" fill="none"><path fill="#618AFF" d="M256 0H0v256h256z"/><path fill="#fff" d="M186.81 62.58a93.4 93.4 0 0 0-29.44-18.18 82.4 82.4 0 0 0-29.17-5.75h-.06A82.4 82.4 0 0 0 99 44.41a93.4 93.4 0 0 0-29.49 18.17c-14.6 13.3-32 37.85-32 79.24a5.83 5.83 0 0 0 2.92 5c.18.1 17.58 10.36 20.88 30.37 2.27 13.76 11.59 24.32 27 30.56a76.3 76.3 0 0 0 21.7 5.15 5.84 5.84 0 0 0 4.354-1.572 5.82 5.82 0 0 0 1.836-4.248v-41.33a41.1 41.1 0 0 0 11.76 1.67c4.16.018 8.299-.586 12.28-1.79v41.5A5.827 5.827 0 0 0 146 213h.36a76.3 76.3 0 0 0 21.7-5.15c15.36-6.23 24.68-16.8 27-30.56a42.9 42.9 0 0 1 11.51-22.51 47.6 47.6 0 0 1 9.38-7.85 5.832 5.832 0 0 0 2.92-5c-.06-41.5-17.46-66.04-32.06-79.35m-58.68-12.26h.06c11.88 0 29.16 4.28 44.68 15.87l-10.24 19.58H93.42l-10-19.55c15.5-11.62 32.82-15.9 44.71-15.9m-55.32 125c-3.31-20-17.38-32.15-23.6-36.62C50 106.29 62.59 86 74.33 74.12L84 93l.05 24.59a56.2 56.2 0 0 0 6.21 25.7A46.6 46.6 0 0 0 104.48 160v40.41c-9.98-1.88-28.81-7.75-31.67-25.07zm27.8-37.46a44.5 44.5 0 0 1-4.89-20.35v-20.1h64.58l-.18 19.22a48.15 48.15 0 0 1-5 21c-4.13 8.25-12.21 18.08-27.25 18.08-15.63.04-23.79-11.15-27.26-17.83zm82.89 37.46c-1.59 9.6-8.17 16.85-19.57 21.54a64 64 0 0 1-12.1 3.55v-40.67a46.5 46.5 0 0 0 13.73-16.84 59.9 59.9 0 0 0 6.21-26.15L172 93l9.91-19c11.77 11.89 24.44 32.18 25.2 64.67-6.22 4.51-20.29 16.62-23.6 36.67z"/></svg>
